!!!!SEGMENT: pl-cz--ii-40--003_brioschi-antonio--partita-b-adagio.krn
!!!cenid: 18xx:2476
!!!COM: Brioschi, Antonio
!!!COM-rismid: pe30000488
!!!CDT: <~1725-1750
!!!CNT: Italian
!!!OTL: Partita B - Adagio
!!!PDT: 1800
!!!AGN: Secular; Partita
!!!SMS-siglum: PL-CZ
!!!SMS-shelfmark: II-40
!!!SMS-shelfwork: 001-003 M
!!!SMS-variant:
!!!SMS-altvar:
!!!NIFC-rismid: 300000049
!!!URL-scan: http://repozytorium.nifc.pl/skany/pl-cz-nut--ii-40
!!!ONB-nifc: UWAGA: części Partity: 1. Allegro moderato, 2. Menuett, 3. Adagio, 4. Rondo
**kern	**dynam	**kern	**dynam	**kern	**dynam	**kern	**dynam	**kern	**dynam	**kern	**dynam
*part6	*part6	*part5	*part5	*part4	*part4	*part3	*part3	*part2	*part2	*part1	*part1
*staff6	*	*staff5	*	*staff4	*	*staff3	*	*staff2	*	*staff1	*
*group2	*	*group2	*	*group1	*	*group1	*	*group1	*	*group1	*
*>[A,A,B,B]	*>[A,A,B,B]	*>[A,A,B,B]	*>[A,A,B,B]	*>[A,A,B,B]	*>[A,A,B,B]	*>[A,A,B,B]	*>[A,A,B,B]	*>[A,A,B,B]	*>[A,A,B,B]	*>[A,A,B,B]	*>[A,A,B,B]
*>A	*>A	*>A	*>A	*>A	*>A	*>A	*>A	*>A	*>A	*>A	*>A
*I"Cornu Secondo. in B.	*	*I"Cornu Primo. in B.	*	*I"Fagotto Secondo. in B.	*	*I"Fagotto Primo	*	*I"Clarinetto Secondo in B	*	*I"Clarinetto Primo in B.	*
*I'cor 2	*	*I'cor 1	*	*I'fag 2	*	*I'fag 1	*	*I'cl 2	*	*I'cl 1	*
*clefG2	*	*clefG2	*	*clefF4	*	*clefF4	*	*clefG2	*	*clefG2	*
*ITrd1c2	*	*ITrd1c2	*	*	*	*	*	*ITrd1c2	*	*ITrd1c2	*
*k[b-e-]	*	*k[b-e-]	*	*k[b-e-]	*	*k[b-e-]	*	*k[b-e-]	*	*k[b-e-]	*
*B-:	*	*B-:	*	*B-:	*	*B-:	*	*B-:	*	*B-:	*
*M2/4	*	*M2/4	*	*M2/4	*	*M2/4	*	*M2/4	*	*M2/4	*
=1	=1	=1	=1	=1	=1	=1	=1	=1	=1	=1	=1
!LO:TX:a:B:t=Adagio	!	!LO:TX:a:B:t=Adagio	!LO:HP:t=cres.	!LO:TX:a:B:t=Adagio	!	!LO:TX:a:B:t=Adagio	!	!LO:TX:a:B:t=Adagio	!	!LO:TX:a:B:t=Adagio	!LO:DY:rj
4B-/	.	4b-\	<	8.BB-/L	.	8.F\L	.	8.d/L	.	(8.b-\L	p
.	.	.	.	16BB-/Jk	.	16F\Jk	.	16e-/Jk	.	16cc\Jk)	.
4r	.	4r	.	16BB-/LL	.	16F\LL	.	16d/LL	.	16b-'\LL	.
.	.	.	.	16BB-/	.	16F\	.	16d/	.	16b-'\	.
.	.	.	.	16BB-/	.	16F\	.	16d/	.	16b-'\	.
.	.	.	.	16BB-/JJ	.	16F\JJ	.	16d/JJ	.	16b-'\JJ	.
=2	=2	=2	=2	=2	=2	=2	=2	=2	=2	=2	=2
!	!LO:DY:rj:t=f&colon;	!	!LO:DY:t=f&colon;	!	!	!	!	!	!LO:DY:rj	!	!
16F/LL	f	16f/LL	f	16BB-/LL	.	16F\LL	.	16d/LL	f	16b-\LL	.
16F/J	.	16f/J	.	16C/J	.	16F\J	.	16e-/J	.	16a\J	.
8F/J	.	8f/J	.	8C/J	.	8F\J	.	8e-/J	.	8a\J	.
4r	.	4r	.	4r	.	4r	.	4r	.	(32a\LLL	.
.	.	.	.	.	.	.	.	.	.	32b-\	.
.	.	.	.	.	.	.	.	.	.	32cc\	.
.	.	.	.	.	.	.	.	.	.	32dd\JJJ)	.
.	.	.	.	.	.	.	.	.	.	(32ee-\LLL	.
.	.	.	.	.	.	.	.	.	.	32cc\	.
.	.	.	.	.	.	.	.	.	.	32b-\	.
.	.	.	.	.	.	.	.	.	.	32a\JJJ)	.
=3	=3	=3	=3	=3	=3	=3	=3	=3	=3	=3	=3
16F/LL	.	16f/LL	.	16AA/LL	.	16F\LL	.	16e-/LL	.	16cc\LL	.
16F/J	.	16f/J	.	16BB-/J	.	16F\J	.	16d/J	.	16b-\J	.
8F/J	.	8f/J	.	8BB-/J	.	8F\J	.	8d/J	.	8b-\J	.
4r	.	4r	.	4r	.	4r	.	4r	.	(32ff\LLL	.
.	.	.	.	.	.	.	.	.	.	32dd\	.
.	.	.	.	.	.	.	.	.	.	32cc\	.
.	.	.	.	.	.	.	.	.	.	32b-\JJJ)	.
.	.	.	.	.	.	.	.	.	.	(32a\LLL	.
.	.	.	.	.	.	.	.	.	.	32b-\	.
.	.	.	.	.	.	.	.	.	.	32cc\	.
.	.	.	.	.	.	.	.	.	.	32b-\JJJ)	.
=4	=4	=4	=4	=4	=4	=4	=4	=4	=4	=4	=4
!LO:N:vis=00	!	!LO:N:vis=00	!	!	!	!	!	!	!	!	!
0r	.	0r	.	16B-\LL	.	16e-\LL	.	16g/LL	.	(16a/LL	.
.	.	.	.	16B-\	.	16e-\	.	16g/	.	16g/J)	.
.	.	.	.	16B-\	.	16e-\	.	16g/	.	8g'/J	.
.	.	.	.	16B-\JJ	.	16e-\JJ	.	16g/JJ	.	.	.
*	*	*	*	*	*	*tremolo	*	*	*	*	*
.	.	.	.	16B-\LL	.	16e-\LL	.	16g/LL	.	32g/LLL	.
.	.	.	.	.	.	.	.	.	.	32a/	.
.	.	.	.	16B-\	.	16e-\	.	16g/	.	32b-/	.
.	.	.	.	.	.	.	.	.	.	32a/JJJ	.
.	.	.	.	16B-\	.	16e-\	.	16g/	.	(32a/LLL	.
.	.	.	.	.	.	.	.	.	.	32b-/	.
.	.	.	.	16B-\JJ	.	16e-\JJ	.	16g/JJ	.	32a/	.
.	.	.	.	.	.	.	.	.	.	32g/JJJ)	.
=5	=5	=5	=5	=5	=5	=5	=5	=5	=5	=5	=5
*	*	*	*	*2\right	*	*	*	*	*	*	*
*	*	*	*	*tremolo	*	*	*	*	*	*	*
.	.	.	.	16B-\LL	.	16d\LL	.	16f/LL	.	16g/LL	.
.	.	.	.	16B-\	.	16d\	.	16f/	.	16f/J	.
.	.	.	.	16B-\	.	16d\	.	16f/	.	8f/J	.
.	.	.	.	16B-\	.	16d\JJ	.	16f/JJ	.	.	.
.	.	.	.	16B-\	.	16d\LL	.	16f/LL	.	(32eeX\LLL	.
.	.	.	.	.	.	.	.	.	.	32ff\	.
.	.	.	.	16B-\	.	16d\	.	16f/	.	32gg\	.
.	.	.	.	.	.	.	.	.	.	32ff\JJJ)	.
.	.	.	.	16B-\	.	16d\	.	16f/	.	(32ee-\LLL	.
.	.	.	.	.	.	.	.	.	.	32dd\	.
.	.	.	.	16B-\JJ	.	16d\JJ	.	16f/JJ	.	32cc\	.
.	.	.	.	.	.	.	.	.	.	32b-\JJJ)	.
!	!	!	!	!	!	!	!	!	!	!LO:LB:g=original	!
=6	=6	=6	=6	=6	=6	=6	=6	=6	=6	=6	=6
.	.	.	.	16A\LL	.	16c\LL	.	16f/LL	.	(16ff\LL	.
.	.	.	.	16A\	.	16c\	.	16f/	.	16ee-\J)	.
.	.	.	.	16A\	.	16c\	.	16f/	.	8cc\J	.
.	.	.	.	16A\	.	16c\JJ	.	16f/JJ	.	.	.
.	.	.	.	16A\	.	16c\LL	.	16c/LL	.	(32ccc\LLL	.
.	.	.	.	.	.	.	.	.	.	32bb-\	.
.	.	.	.	16A\	.	16c\	.	16c/	.	32aa\	.
.	.	.	.	.	.	.	.	.	.	32gg\JJJ)	.
.	.	.	.	16A\	.	16c\	.	16c/	.	(32ff\LLL	.
.	.	.	.	.	.	.	.	.	.	32ee-\	.
.	.	.	.	16A\JJ	.	16c\JJ	.	16c/JJ	.	32dd\	.
.	.	.	.	.	.	.	.	.	.	32cc\JJJ)	.
!	!	!	!	!	!	!LO:LB:g=original	!	!	!	!	!
=7	=7	=7	=7	=7	=7	=7	=7	=7	=7	=7	=7
.	.	.	.	16B-\LL	.	16d\LL	.	16f/LL	.	(16gg\LL	.
.	.	.	.	16B-\	.	16d\	.	16f/	.	16ff\J)	.
.	.	.	.	16B-\	.	16d\	.	16f/	.	8dd'\J	.
.	.	.	.	16B-\	.	16d\JJ	.	16f/JJ	.	.	.
.	.	.	.	16B-\	.	16en\LL	.	16f/LL	.	(32bb-\LLL	.
.	.	.	.	.	.	.	.	.	.	32aa\	.
.	.	.	.	16B-\	.	16e\	.	16f/	.	32gg\	.
.	.	.	.	.	.	.	.	.	.	32ff\JJJ)	.
.	.	.	.	16B-\	.	16e\	.	16f/	.	(32eeX\LLL	.
.	.	.	.	.	.	.	.	.	.	32dd\	.
.	.	.	.	16B-\JJ	.	16e\JJ	.	16f/JJ	.	32cc\	.
.	.	.	.	.	.	.	.	.	.	32b-\JJJ)	.
=8	=8	=8	=8	=8	=8	=8	=8	=8	=8	=8	=8
!LO:N:vis=0	!	!LO:N:vis=0	!	!	!	!	!	!	!	!	!
1r	.	1r	.	16A\LL	.	16c\LL	.	16a/LL	.	(32a\LLL	.
.	.	.	.	.	.	.	.	.	.	32ff\	.
.	.	.	.	16A\	.	16c\	.	16a/	.	32eeX\	.
.	.	.	.	.	.	.	.	.	.	32ff\JJJ)	.
.	.	.	.	16A\	.	16c\	.	16a/	.	(32ff\LLL	.
.	.	.	.	.	.	.	.	.	.	32ee\	.
.	.	.	.	16A\JJ	.	16c\JJ	.	16a/JJ	.	32dd\	.
.	.	.	.	.	.	.	.	.	.	32cc\JJJ)	.
.	.	.	.	16B-\LL	.	16d\LL	.	16a/LL	.	32dd\LLL	.
.	.	.	.	.	.	.	.	.	.	32eenX\	.
.	.	.	.	16B-\	.	16d\	.	16a/	.	32ff\	.
.	.	.	.	.	.	.	.	.	.	32ee\JJJ	.
.	.	.	.	16B-\	.	16d\	.	16g/	.	32ff\LLL	.
.	.	.	.	.	.	.	.	.	.	32dd\	.
.	.	.	.	16B-\JJ	.	16d\JJ	.	16g/JJ	.	32cc\	.
.	.	.	.	.	.	.	.	.	.	32b-\JJJ	.
!	!	!	!	!LO:LB:g=original	!	!	!	!LO:LB:g=original	!	!	!
=9	=9	=9	=9	=9	=9	=9	=9	=9	=9	=9	=9
!	!	!	!	!	!	!	!	!	!	!LO:N:vis=16	!
.	.	.	.	16c\LL	.	16f\LL	.	16a/LL	.	8a\L	.
.	.	.	.	16c\	.	16f\	.	16a/	.	.	.
.	.	.	.	16c\	.	16f\	.	16a/	.	(32a\LL	.
.	.	.	.	.	.	.	.	.	.	32b-\	.
.	.	.	.	16c\JJ	.	16f\JJ	.	16a/JJ	.	32bX\	.
*	*	*	*	*	*	*Xtremolo	*	*	*	*	*
.	.	.	.	.	.	.	.	.	.	32cc\JJJ)	.
.	.	.	.	16C/LL	.	16f\LL	.	16a/LL	.	(32b-\LLL	.
.	.	.	.	.	.	.	.	.	.	32a\	.
.	.	.	.	16C/	.	16f\	.	16a/	.	32g\	.
.	.	.	.	.	.	.	.	.	.	32f\JJJ)	.
!	!	!	!	!	!	!	!	!	!	!LO:N:vis=4	!
.	.	.	.	16C/	.	16en\	.	16g/	.	8g/	.
.	.	.	.	16C/JJ	.	16e\JJ	.	16g/JJ	.	.	.
*	*	*	*	*Xtremolo	*	*	*	*	*	*	*
=10	=10	=10	=10	=10	=10	=10	=10	=10	=10	=10	=10
4r	.	4r	.	8F\	.	8f\	.	16.f/LL	.	16.f\LL	.
.	.	.	.	.	.	.	.	32b-/K	.	32dd\K	.
.	.	.	.	8r	.	8r	.	16.a/	.	16.cc\	.
.	.	.	.	.	.	.	.	32b-/JJk	.	32dd\JJk	.
8r	.	8r	.	8r	.	8r	.	8a/L	.	8cc\L	.
!	!	!	!LO:DY:t=f.	!	!	!	!	!	!	!	!
8cc\	.	8cc\	f	8c\	.	8c\	.	8g/J	.	8eeX\J	.
!	!	!	!	!	!	!	!	!	!	!LO:LB:g=original	!
=11	=11	=11	=11	=11	=11	=11	=11	=11	=11	=11	=11
8f/	.	8cc\	.	8F\	.	8F\	.	16.f/LL	.	16.ff\LL	.
.	.	.	.	.	.	.	.	32b-/K	.	32dd\K	.
8r	.	8r	.	8r	.	8r	.	16.a/	.	16.cc\	.
.	.	.	.	.	.	.	.	32b-/JJk	.	32dd\JJk	.
8r	.	8r	.	8r	.	8r	.	8a/L	.	8cc\L	.
8cc\	.	8cc\	.	8C/	.	8C/	.	8g/J	.	8eeX\J	.
=12	=12	=12	=12	=12	=12	=12	=12	=12	=12	=12	=12
!	!	!	!	!LO:TX:t=P:problem:mixed beam	!	!LO:TX:t=P:problem:mixed beam	!	!	!	!	!
8f/L	.	8cc\L	.	8FF/L	.	8FF/L	.	8a/L	.	8ff\L	.
8f/J	.	8cc\J	.	8F\J	.	8F\	.	8a/J	.	8ff\J	.
4f/	.	4cc\	.	4FF/	.	8FF/J	.	4a/	.	4ff\	.
.	.	.	.	.	.	8r	.	.	.	.	.
=13:|!|:	=13:|!|:	=13:|!|:	=13:|!|:	=13:|!|:	=13:|!|:	=13:|!|:	=13:|!|:	=13:|!|:	=13:|!|:	=13:|!|:	=13:|!|:
*>B	*>B	*>B	*>B	*>B	*>B	*>B	*>B	*>B	*>B	*>B	*>B
!	!	!	!	!	!	!	!LO:DY:rj	!	!LO:DY:rj	!	!LO:DY:rj
8f/L	f	8cc\L	f	(16FF/LL	.	16FF/LL	f	8a\L	f	8ff\L	f
.	.	.	.	16AA/	.	16AA/	.	.	.	.	.
8f/J	.	8cc\J	.	16C/	.	16C/	.	8a\J	.	8ff\J	.
.	.	.	.	16F/JJ)	.	16F/JJ	.	.	.	.	.
8f/	.	8cc\	.	8FF/	.	8FF/	.	8a\	.	16ff\LL	.
.	.	.	.	.	.	.	.	.	.	16ff\	.
8r	.	8r	.	8r	.	8r	.	8r	.	16eeX\	.
.	.	.	.	.	.	.	.	.	.	16ff\JJ	.
=14	=14	=14	=14	=14	=14	=14	=14	=14	=14	=14	=14
2r	.	2r	.	2r	.	2r	.	16r	.	16dd\LL	.
.	.	.	.	.	.	.	.	16ff\LL	.	16dd\	.
.	.	.	.	.	.	.	.	16eeX\	.	16cc#X\	.
.	.	.	.	.	.	.	.	16ff\JJ	.	16dd\JJ	.
.	.	.	.	.	.	.	.	16dd\LL	.	16b-\LL	.
.	.	.	.	.	.	.	.	16ee-\JJ	.	16cc\JJ	.
.	.	.	.	.	.	.	.	32gg\LLL	.	(32ee-X\LLL	.
.	.	.	.	.	.	.	.	32ff\	.	32dd\	.
.	.	.	.	.	.	.	.	32ee-\	.	32cc\	.
.	.	.	.	.	.	.	.	32dd\JJJ	.	32b-\JJJ)	.
=15	=15	=15	=15	=15	=15	=15	=15	=15	=15	=15	=15
!	!LO:DY:t=f&colon;	!	!LO:DY:t=f&colon;	!	!LO:DY:rj	!	!	!	!	!	!LO:DY:rj
8f/L	f	8cc\L	f	16FF/LL	f	16FF/LL	.	8a\L	.	8ee-\L	f
.	.	.	.	16AA/	.	16AA/	.	.	.	.	.
8f/J	.	8cc\J	.	16C/	.	16C/	.	8a\J	.	8ee-\J	.
.	.	.	.	16F/JJ	.	16F/JJ	.	.	.	.	.
8f/	.	8cc\	.	8FF/	.	8FF/	.	8a\	.	(16ee-\LL	.
.	.	.	.	.	.	.	.	.	.	16ee-\	.
8r	.	8r	.	8r	.	8r	.	8r	.	16dd\	.
.	.	.	.	.	.	.	.	.	.	16ee-\JJ)	.
!	!	!	!	!	!	!LO:LB:g=original	!	!	!	!	!
=16	=16	=16	=16	=16	=16	=16	=16	=16	=16	=16	=16
2r	.	2r	.	2r	.	2r	.	16r	.	16cc\LL	.
.	.	.	.	.	.	.	.	(16ee-\LL	.	16cc\	.
.	.	.	.	.	.	.	.	16dd\	.	16bX\	.
.	.	.	.	.	.	.	.	16ee-\JJ)	.	16cc\JJ	.
.	.	.	.	.	.	.	.	16cc\LL	.	16a\LL	.
.	.	.	.	.	.	.	.	16dd\JJ	.	16b-\JJ	.
.	.	.	.	.	.	.	.	(32ff\LLL	.	(32dd\LLL	.
.	.	.	.	.	.	.	.	32ee-\	.	32cc\	.
.	.	.	.	.	.	.	.	32dd\	.	32b-\	.
.	.	.	.	.	.	.	.	32cc\JJJ)	.	32a\JJJ)	.
!LO:LB:g=original	!	!	!	!LO:LB:g=original	!	!	!	!LO:LB:g=original	!	!LO:LB:g=original	!
=17	=17	=17	=17	=17	=17	=17	=17	=17	=17	=17	=17
4d/	.	4b-\	p	32D\LLL	.	(32D\LLL	.	8dd\	.	8b-\	.
.	.	.	.	32E-\	.	32E-\	.	.	.	.	.
.	.	.	.	32F\	.	32F\	.	.	.	.	.
.	.	.	.	32G\JJJ	.	32G\JJJ	.	.	.	.	.
.	.	.	.	32F\LLL	.	32A\LLL)	.	8r	.	4r	.
.	.	.	.	32G\	.	(32B-\	.	.	.	.	.
.	.	.	.	32A\	.	32c\	.	.	.	.	.
.	.	.	.	32B-\JJJ	.	32d\JJJ)	.	.	.	.	.
4f/	.	4b-\	.	32c\LLL	.	(32e-\LLL	.	4r	.	.	.
.	.	.	.	32B-\	.	32d\	.	.	.	.	.
.	.	.	.	32A\	.	32c\	.	.	.	.	.
.	.	.	.	32G\JJJ	.	32B-\JJJ)	.	.	.	.	.
.	.	.	.	32F\LLL	.	(32A\LLL	.	.	.	8r	.
.	.	.	.	32E-\	.	32G\	.	.	.	.	.
.	.	.	.	32D\	.	32F\	.	.	.	.	.
.	.	.	.	32C\JJJ	.	32E-\JJJ)	.	.	.	.	.
=18	=18	=18	=18	=18	=18	=18	=18	=18	=18	=18	=18
8d/	.	8b-\	.	8BB-/	.	8D\	.	16r	.	16r	.
.	.	.	.	.	.	.	.	16dd\LL	.	(16ff\LL	.
8r	.	8r	.	8r	.	8r	.	16cc\	.	16ee-\)	.
.	.	.	.	.	.	.	.	16b-\JJ	.	16dd|\JJ	.
8f/	.	8cc\	.	8FF/	.	8F\	.	16r	.	16r	.
.	.	.	.	.	.	.	.	16a\LL	.	16cc|\LL	.
8r	.	8r	.	8r	.	8r	.	16b-\	.	(16dd\	.
.	.	.	.	.	.	.	.	16cc\JJ	.	16ee-\JJ)	.
!	!	!LO:LB:g=original	!	!	!	!	!	!	!	!	!
=19	=19	=19	=19	=19	=19	=19	=19	=19	=19	=19	=19
8d/	.	8b-\	.	8BB-/	.	8.B-\L	.	16r	.	16r	.
.	.	.	.	.	.	.	.	16f/LL	.	16dd\LL	.
8r	.	8r	.	8r	.	.	.	16e-/	.	16cc\	.
.	.	.	.	.	.	32A\LL	.	16d/JJ	.	16b-\JJ	.
.	.	.	.	.	.	32G\JJJ	.	.	.	.	.
8f/	.	8cc\	.	8r	.	4F\	.	16r	.	16r	.
.	.	.	.	.	.	.	.	16c/LL	.	16a\LL	.
8r	.	8r	.	8FF/	.	.	.	16d/	.	16b-\	.
.	.	.	.	.	.	.	.	16e-/JJ	.	16cc\JJ	.
=20	=20	=20	=20	=20	=20	=20	=20	=20	=20	=20	=20
!	!	!	!	!LO:TX:t=P:problem:mixed beam	!	!LO:TX:t=P:problem:mixed beam	!	!	!	!	!
16.B-/LL	.	16.b-\LL	.	8FF/L	.	8BB-/L	.	16.d/LL	.	16.cc\LL	.
32B-/K	.	32b-\K	.	.	.	.	.	32d/K	.	32b-\K	.
16.B-/	.	16.b-\	.	8B-\J	.	8B-\	.	16.g/	.	16.ee-\	.
32B-/JJk	.	32b-\JJk	.	.	.	.	.	32g/JJk	.	32ee-\JJk	.
!	!	!	!	!LO:TX:t=P:problem:mixed beam	!	!	!	!	!	!	!
8B-/	.	8b-\	.	8BB-/L	.	8BB-/	.	16g/LL	.	(32ee-\LLL	.
.	.	.	.	.	.	.	.	.	.	32dd\	.
.	.	.	.	.	.	.	.	16f/	.	32cc\	.
.	.	.	.	.	.	.	.	.	.	32b-\JJJ)	.
8r	.	8r	.	8F\J	.	8F\J	.	16e-/	.	(32dd\LLL	.
.	.	.	.	.	.	.	.	.	.	32cc\	.
.	.	.	.	.	.	.	.	16d/JJ	.	32b-\	.
.	.	.	.	.	.	.	.	.	.	32a\JJJ)	.
=21	=21	=21	=21	=21	=21	=21	=21	=21	=21	=21	=21
!	!	!	!	!LO:TX:t=P:problem:mixed beam	!	!LO:TX:t=P:problem:mixed beam	!	!	!	!	!
16.B-/LL	.	16.b-\LL	.	8BB-/L	.	8BB-/L	.	16.d/LL	.	16.b-\LL	.
32B-/K	.	32b-\K	.	.	.	.	.	32d/JJk	.	32b-\K	.
16.B-/	.	16.b-\	.	8B-\J	.	8B-\	.	16.ee-\LL	.	16.gg\	.
32B-/JJk	.	32b-\JJk	.	.	.	.	.	32ee-\JJk	.	32gg\JJk	.
!	!	!	!	!LO:TX:t=P:problem:mixed beam	!	!	!	!	!	!	!
8B-/	.	8b-\	.	8BB-/L	.	8BB-/	.	32ff\LLL	.	(32gg\LLL	.
.	.	.	.	.	.	.	.	32dd\	.	32ff\	.
.	.	.	.	.	.	.	.	32cc\	.	32ee-\	.
.	.	.	.	.	.	.	.	32b-JJ\	.	32dd\JJJ)	.
8r	.	8r	.	8F\J	.	8F\J	.	32ddL\	.	(32ff\LLL	.
.	.	.	.	.	.	.	.	32cc\	.	32ee-\	.
.	.	.	.	.	.	.	.	32b-\	.	32dd\	.
.	.	.	.	.	.	.	.	32a\JJ	.	32cc\JJJ)	.
!	!	!	!	!	!	!	!	!	!	!LO:LB:g=original	!
=22	=22	=22	=22	=22	=22	=22	=22	=22	=22	=22	=22
8d/	f	8b-\	.	8BB-/	.	8BB-/	.	16.b-\LL	.	16.dd\LL	.
.	.	.	.	.	.	.	.	32dd\K	.	32gg\K	.
8r	.	8r	.	8r	.	8r	.	16.cc\	.	16.ff\	.
.	.	.	.	.	.	.	.	32ee-\JJk	.	32gg\JJk	.
8f/	.	8r	.	8r	.	8r	.	8dd\L	.	8ff\L	.
!	!	!	!	!	!	!	!LO:DY:t=f&colon;	!	!	!	!
8r	.	8cc\	.	8F\	.	8F\	f	8cc\J	.	8aa\J	.
=23	=23	=23	=23	=23	=23	=23	=23	=23	=23	=23	=23
8b-\	.	8dd\	.	8B-\	.	8B-\	.	16.dd\LL	.	16.bb-\LL	.
.	.	.	.	.	.	.	.	32ee-\K	.	32gg\K	.
8r	.	8r	.	4r	.	4r	.	16.dd\	.	16.ff\	.
.	.	.	.	.	.	.	.	32ee-\JJk	.	32gg\JJk	.
8f/	.	8r	.	.	.	.	.	8dd\L	.	8ff\L	.
!	!	!	!	!	!LO:DY:t=f&colon;	!	!LO:DY:t=f&colon;	!	!	!	!
8r	.	8cc\	.	8F\	f	8F\	f	8cc\J	.	8aa\J	.
=24	=24	=24	=24	=24	=24	=24	=24	=24	=24	=24	=24
!	!	!	!	!LO:TX:t=P:problem:mixed beam	!	!LO:TX:t=P:problem:mixed beam	!	!	!	!	!
8d/L	.	8b-\L	.	8BB-/L	.	8BB-/L	.	8dd\L	.	8bb-\L	.
8d/J	.	8b-\J	.	8B-\J	.	8B-\J	.	8dd\J	.	8bb-\	.
8d/	.	4b-\	.	4BB-/	.	4BB-/	.	8dd\	.	8bb-\J	.
8r	.	.	.	.	.	.	.	8r	.	8r	.
=:|!	=:|!	=:|!	=:|!	=:|!	=:|!	=:|!	=:|!	=:|!	=:|!	=:|!	=:|!
*-	*-	*-	*-	*-	*-	*-	*-	*-	*-	*-	*-
!!!system-decoration: [(g1)][(g2)]
!!!RDF**kern: | = vertical stroke
!!!ENC: Krzysztof Stępień
!!!END: 2021-06-18
!!!ENC: Andrzej Kubiczek
!!!END: 2021-06-24
